X: 389
T:Hair In the Gate
C:Jim Sutherland
Z:https://nigelgatherer.com/
M:4/4
L:1/8
K:Am
EAAG A2 Ac| Be d2 d2 ed| cAAG A2 Ac| B2 Be eedg|
EAAG A2 Ac| Beed efed| ceac BAGA|1 (3cBA BG ABcA :|2 (3cBA BG ABce||
f2 fe defd| ec (3AAA Acec| f2 fe defd| e2 eg gage|
f2 fe defd| ec (3AAA Acec| ecAc dBGB |1 (3cBA BG ABce :|2 (3cBA BG A4|]

